X:1
T:Ach Gott vom Himmel (4vv, XCII)
T:Michael Praetorius
T:Ach Gott vom Himmel (4vv, XCII)
C:Michael Praetorius
%%score [ 1 2 3 4 ]
L:1/8
Q:1/4=160
M:4/2
K:F
V:1 treble nm="Soprano" snm="S"
V:2 treble nm="Alto" snm="A"
V:3 treble-8 nm="Tenor" snm="T"
V:4 bass nm="Bass" snm="B"
V:1
 A8 B4 A4 | G4 d4 d4 B4 | A8 z4 c4 | B4 A4 G4 c4 | B4 A4 G8 | A8 B4 A4 | G4 d4 d4 B4 | A8 z4 c4 | %8
w: Ach Gott, vom|Him- mel sieh dar-|ein und|laß dich des er-|bar- * men.|Wie we- nig|sind der Heil- gen|dein ver-|
 B4 A4 G4 c4 | B4 A4 G8 | z4 G4 A4 F4 | E4 D4 F4 G4 | A8 z4 F4 | G4 B4 A4 B4 | G4 ^F4 G8 | %15
w: las- sen sind wir|Ar- * men.|Dein Wort man|läßt nicht ha- ben|wahr der|Glaub ist auch ver-|lo- schen gar|
 z4 G4 d4 B4 | c4 d4 c4 B4 | A16- | A16 |] %19
w: bei al- len|Men- schen- kin- *|dern,|_|
V:2
 F8 D4 F4 | D4 D4 D4 D4 | D8 z4 E4 | D4 C4 E6 F2 | D8 D8 | F8 D4 F4 | D4 D4 D4 D4 | D8 z4 E4 | %8
w: Ach Gott, vom|Him- mel sieh dar-|ein und|laß dich des er-|bar- men.|Wie we- nig|sind der Heil- gen|dein ver-|
 D4 C4 E6 F2 | D8 D8 | z4 D4 F4 D4 | C4 A,4 D4 D4 | ^C8 z4 D4 | E4 G4 F4 F4 | B,4 D4 D8 | %15
w: las- sen sind wir|Ar- men.|Dein Wort man|läßt nicht ha- ben|wahr der|Glaub ist auch ver-|lo- schen gar|
 z4 D4 D4 G4 | E4 F4 A4 G4 | F4 E2 D2 E8 | E16 |] %19
w: bei al- len|Men- schen- kin- *||dern.|
V:3
 A8 G4 A4 | B4 A4 B4 G4 | ^F8 z4 A4 | F4 F4 G4 A4- | A2 G4 ^F2 G2 A2 B4 | A8 G4 A4 | B4 A4 B4 G4 | %7
w: Ach Gott, vom|Him- mel sieh dar-|ein und|laß dich des er-|bar- * * men. _ _|Wie we- nig|sind der Heil- gen|
 ^F8 z4 A4 | F4 F4 G4 A4- | A2 G4 ^F2 G2 A2 B4 | z4 B4 c4 B4 | G4 F4 F4 D4 | E8 z4 F4 | %13
w: dein ver-|las- sen sind wir|Ar- * * men. _ _|Dein Wort man|läßt nicht ha- ben|wahr der|
 c4 d4 d4 d4 | G4 A4 =B8 | z4 B4 A4 d4 | c4 A4 A4 d4 | d4 ^c2 =B2 c8- | c16 |] %19
w: Glaub ist auch ver-|lo- schen gar|bei al- len|Men- schen- kin- *|dern. _ _ _|_|
V:4
 D,8 G,,4 D,4 | G,4 ^F,4 G,4 G,,4 | D,8 z4 A,,4 | B,,4 F,,4 C,4 A,,4 | B,,3 C, D,4 G,,8 | %5
w: Ach Gott, vom|Him- mel sieh dar-|ein und|laß dich des er-|bar- * * men.|
 D,8 G,,4 D,4 | G,4 ^F,4 G,4 G,,4 | D,8 z4 A,,4 | B,,4 F,,4 C,4 A,,4 | B,,3 C, D,4 G,,8 | %10
w: Wie we- nig|sind der Heil- gen|dein ver-|las- sen sind wir|Ar- * * men.|
 z4 G,4 F,4 B,,4 | C,4 D,4 B,,4 B,,4 | A,,8 z4 D,4 | C,4 G,4 D,4 B,,4 | _E,4 D,4 G,,8 | %15
w: Dein Wort man|läßt nicht ha- ben|wahr der|Glaub ist auch ver-|lo- schen gar|
 z4 G,4 ^F,4 G,4 | A,4 D,4 F,4 G,4 | A,16- | A,16 |] %19
w: bei al- len|Men- schen- kin- *|dern,|_|

